dist/svgs/tablet.svg

<!-- Generated by IcoMoon.io -->
<svg version="1.1" xmlns="http://www.w3.org/2000/svg" width="24" height="24" viewBox="0 0 24 24">
<title>tablet</title>
<path d="M20 0h-16c-1.7 0-3 1.3-3 3v18c0 1.7 1.3 3 3 3h16c1.7 0 3-1.3 3-3v-18c0-1.7-1.3-3-3-3zM21 21c0 0.6-0.4 1-1 1h-16c-0.6 0-1-0.4-1-1v-18c0-0.6 0.4-1 1-1h16c0.6 0 1 0.4 1 1v18z"></path>
<path d="M19 3h-14c-0.6 0-1 0.4-1 1v13c0 0.6 0.4 1 1 1h14c0.6 0 1-0.4 1-1v-13c0-0.6-0.4-1-1-1zM18 16h-12v-11h12v11z"></path>
<path d="M13 20c0 0.552-0.448 1-1 1s-1-0.448-1-1c0-0.552 0.448-1 1-1s1 0.448 1 1z"></path>
</svg>

<svg xmlns="http://www.w3.org/2000/svg" width="24" height="24"><path d="M20 0H4C2.3 0 1 1.3 1 3v18c0 1.7 1.3 3 3 3h16c1.7 0 3-1.3 3-3V3c0-1.7-1.3-3-3-3zm1 21c0 .6-.4 1-1 1H4c-.6 0-1-.4-1-1V3c0-.6.4-1 1-1h16c.6 0 1 .4 1 1v18z"/><path d="M19 3H5c-.6 0-1 .4-1 1v13c0 .6.4 1 1 1h14c.6 0 1-.4 1-1V4c0-.6-.4-1-1-1zm-1 13H6V5h12v11zM13 20a1 1 0 1 1-2 0 1 1 0 0 1 2 0z"/></svg>
